X:1
T:Earl of Crawford's Reel, The
T:Earl of Crawford's Reel, The
T:Peter Milne
C:Peter Milne
L:1/8
M:2/2
K:A
V:1 treble 
V:1
 e | a2 ed (ce)Ac | dfce Befg | a2 ed (ce)Ac | dfBg a2- ae | a2 ed (ce)Ac | dfce Befg | %7
 a2 ed (ce)Ac | dfBg (a2 A) || e | cAeA fAeA | cAec dBGe | cAeA fAec | dBGe cAAe | cAaA gAfA | %15
 eAcA dBGB |{d} cBce{e} dcdf | eagb aAA || %18

